svgs/thin/images-user.svg

<svg xmlns="http://www.w3.org/2000/svg" viewBox="0 0 576 512"><!--! Font Awesome Pro 6.6.0 by @fontawesome - https://fontawesome.com License - https://fontawesome.com/license (Commercial License) Copyright 2024 Fonticons, Inc. --><path d="M512 48L160 48c-26.5 0-48 21.5-48 48l0 224c0 26.5 21.5 48 48 48l64 0 0-32c0-44.2 35.8-80 80-80l64 0c44.2 0 80 35.8 80 80l0 32 64 0c26.5 0 48-21.5 48-48l0-224c0-26.5-21.5-48-48-48zM448 384l-16 0-192 0-16 0-64 0c-35.3 0-64-28.7-64-64L96 96c0-35.3 28.7-64 64-64l352 0c35.3 0 64 28.7 64 64l0 224c0 35.3-28.7 64-64 64l-64 0zm-16-16l0-32c0-35.3-28.7-64-64-64l-64 0c-35.3 0-64 28.7-64 64l0 32 192 0zM64 128l0 16c-26.5 0-48 21.5-48 48l0 224c0 26.5 21.5 48 48 48l352 0c26.5 0 48-21.5 48-48l16 0c0 35.3-28.7 64-64 64L64 480c-35.3 0-64-28.7-64-64L0 192c0-35.3 28.7-64 64-64zm320 32a48 48 0 1 0 -96 0 48 48 0 1 0 96 0zM336 96a64 64 0 1 1 0 128 64 64 0 1 1 0-128z"/></svg>

<svg xmlns="http://www.w3.org/2000/svg" viewBox="0 0 576 512"><!--! Font Awesome Pro 6.4.0 by @fontawesome - https://fontawesome.com License - https://fontawesome.com/license (Commercial License) Copyright 2023 Fonticons, Inc. --><path d="M512 48H160c-26.5 0-48 21.5-48 48V320c0 26.5 21.5 48 48 48h64V336c0-44.2 35.8-80 80-80h64c44.2 0 80 35.8 80 80v32h64c26.5 0 48-21.5 48-48V96c0-26.5-21.5-48-48-48zM448 384H432 240 224 160c-35.3 0-64-28.7-64-64V96c0-35.3 28.7-64 64-64H512c35.3 0 64 28.7 64 64V320c0 35.3-28.7 64-64 64H448zm-16-16V336c0-35.3-28.7-64-64-64H304c-35.3 0-64 28.7-64 64v32H432zM64 128v16c-26.5 0-48 21.5-48 48V416c0 26.5 21.5 48 48 48H416c26.5 0 48-21.5 48-48h16c0 35.3-28.7 64-64 64H64c-35.3 0-64-28.7-64-64V192c0-35.3 28.7-64 64-64zm320 32a48 48 0 1 0 -96 0 48 48 0 1 0 96 0zM336 96a64 64 0 1 1 0 128 64 64 0 1 1 0-128z"/></svg>
